X: 16
T: Eavesdropper, The
Z: tziguk
S: https://thesession.org/tunes/389#setting53429
R: jig
M: 6/8
L: 1/8
K: Gmaj
|:GBB BAG|Bdd dBG|cee dBG|BAG AFD|
GBB BAG|Bdd dBG|cde dBG|1 AGF G2D:|2 BGG GBd||
|:gfg aed|efg dBG|cde dBG|BAG ABd|
gfg aed|efg dBG|cde dBG|1 AGF GBd:|2AGF G2D||

%-------------------- TUNE SEPARATOR --------------------%

